data/styles/clear/style-clear/symbols/park-m.svg

<svg height="24" viewBox="0 0 24 24" width="24"><g fill="none" fill-rule="evenodd"><circle cx="12" cy="12" fill="#fff" opacity=".6" r="12"/><circle cx="12" cy="12" fill="#507f34" r="11"/><path d="m17 12c0-1-1.1111111-2-1.6666667-2 .3409556-.3437.6789778-1.0028.6789778-1.4999 0-1.0738-1.2345333-2.0001-2.3456444-2.0001 0-1-.5555556-1.5-1.6666667-1.5s-1.6666667.5-1.6666667 1.5c-1.11111108 0-2.34564441.9266-2.34564441 2.0005 0 .4971.33802222 1.1558.67897778 1.4995-.55555556 0-1.66666667 1-1.66666667 2s.55555556 2.056 2.28396667 2.056h.4321l.06166666.944 1.66666667 1.5-.0000444 2.5h1.1111111l.0000444-2.5004 1.6666667-1.4996.0616666-.944.6211334-.012c1.5394666-.044 2.0950222-1.044 2.0950222-2.044zm-6.1111111 2h2.2222222v.5l-1.1111111 1-1.1111111-1z" fill="#fff"/></g></svg>

<svg width="24" height="24" viewBox="0 0 24 24">
  <g fill="none" fill-rule="evenodd">
    <circle cx="12" cy="12" r="12" fill="#FFF" opacity=".6"/>
    <circle cx="12" cy="12" r="11" fill="#507F34"/>
    <path fill="#FFF" d="M17,12 C17,11 15.8888889,10 15.3333333,10 C15.6742889,9.6563 16.0123111,8.9972 16.0123111,8.5001 C16.0123111,7.4263 14.7777778,6.5 13.6666667,6.5 C13.6666667,5.5 13.1111111,5 12,5 C10.8888889,5 10.3333333,5.5 10.3333333,6.5 C9.22222222,6.5 7.98768889,7.4266 7.98768889,8.5005 C7.98768889,8.9976 8.32571111,9.6563 8.66666667,10 C8.11111111,10 7,11 7,12 C7,13 7.55555556,14.056 9.28396667,14.056 L9.71606667,14.056 L9.77773333,15 L11.4444,16.5 L11.4443556,19 L12.5554667,19 L12.5555111,16.4996 L14.2221778,15 L14.2838444,14.056 L14.9049778,14.044 C16.4444444,14 17,13 17,12 L17,12 Z M10.8888889,14 L13.1111111,14 L13.1111111,14.5 L12,15.5 L10.8888889,14.5 L10.8888889,14 Z"/>
  </g>
</svg>
